assets/icons/keytag.svg

<svg fill="none" height="25" viewBox="0 0 25 25" width="25"><path clip-rule="evenodd" d="m19.962 4.384a5.002 5.002 0 0 1 -3.166 5.284l.101.2c1.291 2.583 2.103 5.675 2.103 7.69 0 4.114-3.362 7.442-7.5 7.442s-7.5-3.328-7.5-7.442c0-2.015.812-5.107 2.103-7.69.648-1.296 1.431-2.495 2.32-3.378.486-.481 1.018-.883 1.589-1.147a5.001 5.001 0 0 1 9.95-.959zm-6.089 2.816c.491.488.959 1.1 1.391 1.792a3.994 3.994 0 0 1 -2.179-.48.51.51 0 0 0 -.085-.036 1.5 1.5 0 1 0 -.322.953 4.979 4.979 0 0 0 3.129.506c.066.125.131.252.195.38 1.243 2.487 1.998 5.425 1.998 7.243 0 3.554-2.906 6.442-6.5 6.442s-6.5-2.888-6.5-6.442c0-1.819.755-4.756 1.998-7.243.619-1.239 1.344-2.335 2.129-3.115.79-.783 1.591-1.2 2.373-1.2s1.583.417 2.373 1.2zm5.097-2.692a4.002 4.002 0 0 1 -2.663 4.274c-.516-.872-1.096-1.662-1.73-2.292-.886-.878-1.926-1.49-3.077-1.49-.169 0-.336.014-.5.039a4.001 4.001 0 0 1 7.97-.532zm-6.97 3.992a.5.5 0 1 1 -1 0 .5.5 0 0 1 1 0zm5 9a5.5 5.5 0 1 0 -11 0 5.5 5.5 0 0 0 11 0zm-5.5-4.5a4.5 4.5 0 1 1 0 9 4.5 4.5 0 0 1 0-9z" fill="#18303f" fill-rule="evenodd"/></svg>

<svg width="25" height="25" viewBox="0 0 25 25" fill="none"><g id="keytag"><path id="iconDefault" fill-rule="evenodd" clip-rule="evenodd" d="M19.962 4.384a5.002 5.002 0 0 1-3.166 5.284l.101.2C18.188 12.451 19 15.543 19 17.558 19 21.672 15.638 25 11.5 25S4 21.672 4 17.558c0-2.015.812-5.107 2.103-7.69.648-1.296 1.431-2.495 2.32-3.378.486-.481 1.018-.883 1.589-1.147a5.001 5.001 0 0 1 9.95-.959ZM13.873 7.2c.491.488.959 1.1 1.391 1.792a3.994 3.994 0 0 1-2.179-.48.51.51 0 0 0-.085-.036 1.5 1.5 0 1 0-.322.953 4.979 4.979 0 0 0 3.129.506c.066.125.131.252.195.38C17.245 12.802 18 15.74 18 17.558 18 21.112 15.094 24 11.5 24S5 21.112 5 17.558c0-1.819.755-4.756 1.998-7.243C7.617 9.076 8.342 7.98 9.127 7.2 9.917 6.417 10.718 6 11.5 6c.782 0 1.583.417 2.373 1.2Zm5.097-2.692a4.002 4.002 0 0 1-2.663 4.274c-.516-.872-1.096-1.662-1.73-2.292C13.691 5.612 12.651 5 11.5 5c-.169 0-.336.014-.5.039a4.001 4.001 0 0 1 7.97-.532ZM12 8.5a.5.5 0 1 1-1 0 .5.5 0 0 1 1 0Zm5 9A5.5 5.5 0 1 0 6 17.5a5.5 5.5 0 0 0 11 0ZM11.5 13a4.5 4.5 0 1 1 0 9 4.5 4.5 0 0 1 0-9Z" fill="#18303F"/></g></svg>
